X:180
T:Girl in Green, The
R:Jig
S:Kerr's Violin III
M:6/8
L:1/8
K:G
|B |\
"G" ded BGB | "Am" c2 B "D" A2 G | "G"  DGG "Em" GFG | "Am" ABA "D" ABc|!
"G" ded BGB | "Am" c2 B "D" A2 G | "G"  DGG "C"  EGG | "G"  DGG     G2|!
|:B/c/| "G" ded Bdg | "C"  ecc      c3   | "Am" efe "A" ^cea | "D"  fddd2 f |!
"G" gfe dcB | "Am" edc  "D" BAG  | "G"  DGG "C"  EGG | "G"  DGG     G2:|!
B ||\
"G" ded BGB | "Am" c2 B "D" A2 G | "G"  DGG "Em" GFG | "Am" ABA "D" ABc|!
"G" ded BGB | "Am" c2 B "D" A2 G | "G"  DGG "C"  EGG | "G"  DGG     G2|!
B/c/| "G" ded Bdg | "C"  ecc      c3   | "Am" efe "A" ^cea | "D"  fddd2 f |
"G" gfe dcB | "Am" edc  "D" BAG  | "G"  DGG "C"  EGG | "G"  DGG     G2|]
